X:1
T:ສາວເຖົ້າ
T:ເນື້ອຮ້ອງ & ທຳນອງ : ຄຳຫຼ້າ ໜໍ່ແກ້ວ ນັກຮ້ອງຕົ້ນສະບັບ : ຈັນທະຣາ ອຸເທນສັກດາ
T:1968
T:© studiodavong
C:Khamla NOKEO
Z:© studiodavong
%%score ( 1 2 )
L:1/8
Q:1/4=95
M:4/4
K:Gb
V:1 treble nm="Piano" snm="Pno."
V:2 treble 
V:1
"^Lamvong Lao""_(Intro)" z8 |:"Ebm" E3 D EGAG |"Gb" B2{/B} d2 z2 d2 |"Bbm" BdBA G D2 E- | %4
w: ||||
"Ebm" E4 z E/D/ B,D |"Cb" EGED E2 GA- |"Abm" A2 z B"Db" d2{/d} eB- |"Gb" BGAB"Db" d3 E/E/ | %8
w: ||||
"Gb" G{/B} (d2 e dBAG) ||"Ebm""^A"{G} E3 G A2 G2 |"Gb"{Bd} B6{B} d2 |"Bbm"{d} B3 A G2 D2 | %12
w: |ເຖົ້າ ຈິ ຕາຍ ຢູ່|ແລ້ວ ນ້ອງ|ແກ້ວ ຄອຍ ຖ້າ ຜູ່|
"Ebm" E4 z GB,D |"Cb"{G} E3 G{G} E2 G2 |"Abm" A3 D E2 GA- |"Db" A{B}dEG A2 B2 |"Gb"{/B} d8 || %17
w: ໃດ ເຂົາ ຢູ່ ເມືອງ|ນອກ ຫຼື ວ່າ ເມືອງ|ໃນ ອີກ ດົນ ປານ ໃດ-|* ເຂົາ ຈຶ່ງ ຈະ ມາ ສູ່|ຂໍ...|
"Ebm""^B"{G} E3 G A2 G2 |"Gb"{Bd} B6{B} d2 |"Bbm" B3 A B2{B} D2 |"Ebm" E4 z DB,D | %21
w: ເຖົ້າ ເກີນ ໄປ ເສັຽ|ແລ້ວ ຫາ|ແນວ ແຕ່ງ ໄວ້ ໃຫ້|ພໍ ໃຫ້ ໜຸ່ມ ທັງ|
"Cb"{D} E3 G{G} E3 G |"Abm" A3 B"Db" d2 eB- |"Gb" BGAB"Db" d3 E/E/ |"Gb" G8 || %25
w: ຫຼາຍ ເຂົາ ວ່າ ລະ|ອໍ ໃຫ້ ຄົນ ເຂົາ ຍໍ-|* ວ່າ ປານ ອາ ຍຸ ສິບ ຫົກ|ປີ...|
"Ebm""_(ເວົ້າ) ແມ່ນເຈົ້າຖ້າຜູ່ໃດເກ໋າະ ຄືວ່າດົນກະດັກກະດໍ້ແທ້""^C" E3 (D EGAB | %26
w: |
"Gb" d2) z{e} g e2 dB- | BBdG"Db" AGAB |"Gb" d4 z{e} ged |{d} BBdB"Ebm" E2 GA- | %30
w: * ຂໍ ຖາມ ເຈົ້າ ແດ່-|* ຫຼື ວ່າ ບໍ່ ແຄ ຜູ່ ຊາຍ ລະ|ຕິ ຫຼື ເທພ- *|ເຈົ້າ ສົ່ງ ນາງ ມາ ເກີດ ຟຣີ ໆ-|
"Abm" AdBd"Bbm" B2 de- |"Cb" eBde"Gb" BAGE |"Db" d8 ||"Ebm" E3 G A2 G2"^D" |"Gb"{Bd} B6{B} d2 | %35
w: * ເປັນ ໂສດ ຕ ລອດ ຊີ ວີ-|* ເກີດ ເປັນ ທະ ນີ ບໍ່ ດີ ກວ່າ|ຫວະ...|ເໝິດ ສັດ ທາ ເສັຽ|ແລ້ວ ນ້ອງ|
"Bbm"{d} B3 A G2{E} G2 |"Ebm" E4 z DB,D |"Cb"{D} E3 D E2{G} B2 |"Abm" A3 B"Db" d2 eB- | %39
w: ແກ້ວ ສິ້ນ ຄວາມ ໂສ|ພາ ເຈົ້າ ເກີດ ເປັນ|ຍິງ ຂາດ ຊາຍ ຫົວ|ຊາ ຂາດ ຄູ່ ນິ ທຣາ-|
"Gb" BGAd"Db"{B} d3 G/E/!dacoda! ||1"Gb""_(Solo Intro, verse A & B)" G8 :|2O"Gb""_(Coda)""^E" G8 || %42
w: * ເກີດ ມາ ຕ້ອງ ໜາວ ຕ ລອດ|ການ...|ການ...|
"Ebm" E3 D EGAG |"Gb" B2{/B} d2 z2 d2 |"Db" BdBA G E2 G- |"Gb" !fermata!G8!fine! |] %46
w: ||||
V:2
 x8 |: x8 | x8 | x8 | x8 | x8 | x8 | x8 | x8 || x8 | x8 | x8 | x8 | x8 | x8 | x8 | x8 || x8 | x8 | %19
 x8 | x8 | x8 | x8 | x8 | z (Bde gedB) || x8 | x8 | x8 | x8 | x8 | x8 | x8 | x8 || x8 | x8 | x8 | %36
 x8 | x8 | x8 | x8 ||1 z (Bde gedB) :|2 z2 z e dBAG || x8 | x8 | x8 | x8 |] %46

